X:1
T:B. D. Ackley
T:James Rowe
T:In His Sunlight
%%score { ( 1 2 ) | ( 3 4 ) }
L:1/8
Q:1/4=112
M:4/4
K:C
V:1 treble 
V:2 treble 
V:3 bass 
V:4 bass 
V:1
"^Moderato"{/E} EF | G2 G2 ^FGAG | c2 c2 Bcdc | B3 A G2 F2 | E2 A2 G2 EF | G2 G2 ^FGAG | %6
w: In the|light and glo\- ry of His|life and sto\- ry There is|ev\- 'ry\- thing that|I can need; That is|why I'm cling\- ing and His|
w: O my|bless\- ed Sav\- ior! He is|mine for\- ev\- er, And will|be my near\- est,|dear\- est Friend; That is|why I love Him, hav\- ing|
w: Oh, the|peace and plea\- sure, oh, the|price\- less trea\- vsure Of the|love of Him who|died for me! Thro' the|day e\- ter\- nal, in the|
 c2 c2 Bcdc | B3 c B2 A2 | %8
w: prais\- es sing\- ing, As the|lost to Him I|
w: naught a\- bove Him, And shall|trust Him to the|
w: world su\- per\- nal, Love Di\-|vine my song shall|
[Q:1/4=48]"^Lento" !fermata!G6[Q:1/4=112][Q:1/4=48]"^Chorus"[Q:1/4=112]"^Moderato" EF | %9
w: lead. In His|
w: end. * *|
w: be. * *|
 G2 G2 z GAG | c2 c2 z2 dc | B3 A G F3 | E2 A2 G2 EF | G2 G2 z GAG | c2 c2 z2 dc | B3 A G2 d2 | %16
w: sun\- light, His pre\- cious|sun\- light, I am|al\- ways hap- py,|yes, in\- deed! In His|sun\- light, His pre\- cious|sun\- light, There is|ev\- 'ry\- thing I|
w: |||||||
w: |||||||
 c4- c2 |] %17
w: need. *|
w: |
w: |
V:2
 CD | E2 E2 ^DE=FE | E2 E2 EEEE | F3 F E2 D2 | C2 F2 E2 CD | E2 E2 ^DE=FE | E2 E2 EEEE | %7
 D3 ^F F2 D2 | (D2"^Moderato" E2"^Lento" !fermata!F2) CD | E2 E2 z EEE | E2 E2 z2 EE | F3 F E D3 | %12
 C2 F2 E2 CD | E2 E2 z EEE | E2 E2 z2 EE | F3 F F2 F2 | E4- E2 |] %17
V:3
 G,G, | C2 C2 CCCC | G,2 G,2 G,G,G,C | D3 C B,2 G,2 | G,2 C2 C2 G,G, | C2 C2 CCCC | %6
 G,2 G,2 G,G,G,G, | G,3 A, D2 C2 | (B,2 C2 !fermata!D2) CG, | C2 C2 z CCC | G,2 G,2 z2 G,C | %11
 D3 C B, G,3 | G,2 C2 C2 CG, | C2 C2 z CCC | G,2 G,2 z2 G,C | D3 C B,2 A,2 | C4- C2 |] %17
V:4
 C,C, | C,2 C,2 C,C,C,C, | C,2 C,2 C,C,C,C, | G,3 G, G,2 G,2 | C,2 C,2 C,2 C,C, | %5
 C,2 C,2 C,C,C,C, | C,2 C,2 C,C,C,C, | D,3 D, D,2 D,2 | G,6 C,C, | C,2 C,2 z C,C,C, | %10
 C,2 C,2 z2 C,C, | G,3 G, G, G,3 | C,2 C,2 C,2 C,C, | C,2 C,2 z C,C,C, | C,2 C,2 z2 C,C, | %15
 G,3 G, G,2 G,2 | C,4- C,2 |] %17

